X:2142
L:1/4
M:3/4
K:C
 G c e |:"C" g2 ^f | g2 a | g3 | G c e | g2 ^f | g2 e |"G7" f3 | G B d | f2 e | f2 g | f3 | f e f | 
 b2 f |"C" e3 |"_*" G c e | g2 ^f | g2 a | g3 | G c e | g2 ^f | g2 ^g |"F" a3 | a ^g a | d'2 c' | 
 b2 a |"C" g3 | g ^f g |"G7" b2 a | g2 B |"C" c3/2 c/ c | c z z ::"C" g e f |"Dm" e f g | 
 a3/2 a/ a | a3 |"G7" f d e | d e f |"C" g3/2 g/ g | g3 | g e f | e f g |"F" c'3/2 c'/ c' | 
 c'2 b/a/ |"G7" a2 g | f d g |"C" c3/2 c/ c | c z z ::[K:F]"F" a g a |"C7" b a g |"F" g3/2 f/ f | 
 f2 c/f/ |"C7" f3/2 e/ e | e2 e/g/ |"F" g3/2 f/ f | f3 | a g a |"C7" b a g |"F" g3/2 f/ f | 
 f2 c/f/ |"C7" f3/2 e/ e | e2 g |"F" f3/2 f/ f | f z z :|

